tools/download-figma-icons/icons/outlined-large/high5.svg

<svg width="65" height="64" viewBox="0 0 65 64" fill="none" xmlns="http://www.w3.org/2000/svg">
<path fill-rule="evenodd" clip-rule="evenodd" d="M30.9353 7.86724C31.1073 7.93024 31.2843 7.96124 31.4573 7.96124C32.0663 7.96124 32.6393 7.58824 32.8643 6.98324L34.7083 2.02224C34.9973 1.24624 34.6013 0.383244 33.8253 0.0942443C33.0513 -0.193756 32.1853 0.200244 31.8963 0.977244L30.0513 5.93824C29.7633 6.71524 30.1593 7.57824 30.9353 7.86724ZM23.2575 7.66514C23.4625 8.30014 24.0515 8.70414 24.6855 8.70414C24.8375 8.70414 24.9925 8.68114 25.1465 8.63214C25.9345 8.37714 26.3665 7.53114 26.1125 6.74314L24.2715 1.03914C24.0165 0.252144 23.1735 -0.179856 22.3825 0.0721443C21.5945 0.327144 21.1615 1.17314 21.4155 1.96114L23.2575 7.66514ZM60.9034 37.2491L60.903 37.2501L60.9026 37.2512L60.902 37.2521C60.814 37.4901 60.678 37.6871 60.546 37.8011L48.706 47.0261C45.296 49.5921 40.987 50.2571 37.183 48.8031C36.495 48.5401 35.845 48.2211 35.242 47.8491C35.2525 47.8256 35.2617 47.8014 35.271 47.7772C35.2802 47.7529 35.2895 47.7286 35.3 47.7051C35.356 47.5812 35.4058 47.4545 35.4555 47.3278C35.4804 47.2645 35.5053 47.2011 35.531 47.1381C35.653 46.8351 35.773 46.5331 35.876 46.2241C35.9383 46.0389 35.9917 45.8504 36.0449 45.6623L36.045 45.6622L36.045 45.6619L36.062 45.6021C36.15 45.3001 36.232 44.9981 36.3 44.6921C36.349 44.4761 36.391 44.2591 36.431 44.0411C36.488 43.7351 36.535 43.4291 36.573 43.1201C36.601 42.8991 36.625 42.6791 36.643 42.4561C36.67 42.1441 36.683 41.8311 36.691 41.5171L36.6936 41.4066C36.698 41.2237 36.7025 41.0411 36.7 40.8571C36.695 40.5311 36.674 40.2061 36.649 39.8801C36.6442 39.8177 36.64 39.7554 36.6357 39.6931L36.6357 39.693L36.6357 39.6929L36.6357 39.6928L36.6357 39.6927L36.6357 39.6926C36.6257 39.5465 36.6158 39.4005 36.599 39.2541C36.559 38.8951 36.498 38.5391 36.433 38.1831C36.4216 38.1183 36.4115 38.0535 36.4015 37.9888C36.3842 37.8777 36.367 37.7667 36.343 37.6561C36.23 37.1261 36.095 36.5991 35.929 36.0761L32.681 26.4331L36.021 17.6531C36.154 17.3021 36.417 17.0221 36.761 16.8691C37.111 16.7141 37.501 16.7031 37.806 16.8171L38.048 16.9181C38.771 17.1911 39.136 18.0061 38.866 18.7351C38.866 18.7356 38.8657 18.7361 38.8655 18.7366L38.8651 18.7375L38.865 18.7381L36.048 26.1351C35.753 26.9091 36.14 27.7751 36.915 28.0701C37.091 28.1381 37.271 28.1691 37.449 28.1691C38.053 28.1691 38.623 27.8021 38.85 27.2031L41.662 19.8231L41.6644 19.8178L41.6668 19.8132L41.669 19.8091L43.67 14.5561C43.967 13.7721 44.85 13.3801 45.63 13.6751C46.016 13.8231 46.315 14.1031 46.473 14.4661C46.589 14.7301 46.685 15.1471 46.517 15.6361C46.5166 15.6372 46.5161 15.6382 46.5154 15.6392L46.5145 15.6406C46.5135 15.6421 46.5125 15.6436 46.512 15.6451L42.586 25.9541C42.291 26.7281 42.678 27.5951 43.453 27.8901C43.629 27.9571 43.809 27.9881 43.987 27.9881C44.592 27.9881 45.161 27.6211 45.388 27.0221L49.295 16.7681C49.2986 16.7582 49.3036 16.7491 49.3086 16.7402C49.3131 16.7319 49.3176 16.7238 49.321 16.7151L50.497 13.6031C50.8 12.8171 51.679 12.4181 52.466 12.7171C52.844 12.8601 53.142 13.1431 53.313 13.5281C53.48 13.8931 53.492 14.3011 53.346 14.6801L51.526 19.4491C51.5215 19.4614 51.5186 19.4734 51.5157 19.4854C51.5134 19.4949 51.5111 19.5044 51.508 19.5141L48.073 28.5331C47.778 29.3081 48.166 30.1741 48.94 30.4691C49.116 30.5361 49.297 30.5671 49.474 30.5671C50.079 30.5671 50.648 30.2001 50.876 29.6021L54.334 20.5231C54.336 20.5185 54.337 20.5137 54.3381 20.5087C54.339 20.5039 54.34 20.499 54.342 20.4941C54.655 19.7281 55.525 19.3451 56.315 19.6501C56.791 19.8271 57.031 20.1771 57.143 20.4261C57.31 20.8091 57.323 21.2281 57.176 21.6101L52.358 34.2641L50.117 35.0831C48.599 34.4481 44.858 33.4951 40.722 36.9831C40.09 37.5181 40.009 38.4641 40.544 39.0981C40.841 39.4491 41.264 39.6301 41.691 39.6301C42.033 39.6301 42.376 39.5141 42.658 39.2761C46.219 36.2681 49.138 37.9211 49.246 37.9841C49.638 38.2281 50.12 38.2761 50.551 38.1191L54.032 36.8471C54.0365 36.8451 54.0407 36.8429 54.045 36.8406C54.0492 36.8384 54.0535 36.8361 54.058 36.8341L58.595 35.2541C59.17 35.0561 60.219 34.8881 60.82 35.9791C61.033 36.3581 61.064 36.8211 60.904 37.2481L60.9034 37.2491ZM25.596 52.8841C21.736 54.1911 17.456 53.3591 14.17 50.6821L3.47198 41.5901C3.29898 41.4301 3.16798 41.2261 3.08598 40.9751C2.93898 40.5541 2.98898 40.0941 3.21798 39.7151C3.51698 39.2241 4.04798 38.9571 4.55598 38.9571C4.79698 38.9571 5.03198 39.0171 5.23598 39.1391L9.61598 42.1591C10.147 42.5261 10.855 42.5111 11.371 42.1221C11.886 41.7331 12.095 41.0581 11.889 40.4451L6.65698 24.9281C6.48398 24.4231 6.63698 23.9831 6.74798 23.7601C6.91898 23.4061 7.22898 23.1391 7.61498 23.0071C8.00598 22.8771 8.42198 22.9051 8.78798 23.0881C9.14498 23.2661 9.41198 23.5701 9.54098 23.9481L9.54598 23.9631C9.5468 23.9653 9.54769 23.9674 9.54861 23.9693L9.55098 23.9741C9.55273 23.9776 9.55448 23.9811 9.55598 23.9851L12.652 33.1671C12.863 33.7931 13.447 34.1871 14.073 34.1871C14.232 34.1871 14.393 34.1621 14.552 34.1081C15.338 33.8441 15.759 32.9931 15.494 32.2081L12.389 23.0021L12.3878 22.9995L12.3863 22.9966C12.3849 22.9938 12.3836 22.9912 12.383 22.9881C12.383 22.9861 12.383 22.9851 12.382 22.9831L10.759 18.1651C10.629 17.7771 10.656 17.3681 10.843 16.9971C10.948 16.7851 11.199 16.4041 11.726 16.2331C12.101 16.1021 12.508 16.1301 12.871 16.3071C13.24 16.4871 13.516 16.8011 13.646 17.1811L14.706 20.3411C14.7065 20.3431 14.7075 20.3449 14.7085 20.3466C14.7095 20.3484 14.7105 20.3501 14.711 20.3521L18.234 30.8021C18.445 31.4281 19.029 31.8221 19.655 31.8221C19.814 31.8221 19.975 31.7971 20.134 31.7441C20.92 31.4781 21.341 30.6281 21.076 29.8431L17.551 19.3901L17.5509 19.3897L17.5507 19.3894L17.5505 19.3891L17.5501 19.3887L17.55 19.3881C17.425 19.0031 17.455 18.5911 17.637 18.2201C17.812 17.8591 18.124 17.5871 18.505 17.4561C19.303 17.1891 20.17 17.6181 20.436 18.4131L22.226 23.7331C22.2283 23.7408 22.2321 23.7478 22.2358 23.7547L22.2404 23.7635L22.243 23.7691L24.759 31.2351C24.971 31.8611 25.555 32.2561 26.181 32.2561C26.34 32.2561 26.502 32.2301 26.661 32.1781C27.446 31.9131 27.868 31.0611 27.603 30.2761L25.075 22.7761C25.0737 22.7732 25.0722 22.7703 25.0707 22.7675L25.067 22.7601L25.065 22.7551C24.832 22.0131 25.221 21.2381 25.977 20.9781L26.151 20.9171C26.9 20.6681 27.71 21.0621 27.956 21.8031L29.665 26.8761L29.6654 26.8776L29.6655 26.8797L29.6655 26.8813L29.6657 26.8822L29.666 26.8831L33.078 37.0091C33.503 38.3461 33.713 39.7231 33.715 41.0891C33.715 41.1536 33.7104 41.2177 33.7057 41.2818C33.702 41.3332 33.6983 41.3846 33.697 41.4361L33.696 41.4745C33.6873 41.7998 33.6787 42.1258 33.646 42.4481C33.6434 42.473 33.6394 42.4973 33.6353 42.5215C33.6314 42.545 33.6274 42.5685 33.625 42.5921C33.58 42.9931 33.522 43.3941 33.441 43.7881C33.4257 43.863 33.4048 43.9361 33.3839 44.0094C33.3693 44.0604 33.3547 44.1114 33.342 44.1631L33.3285 44.2205C33.2591 44.5153 33.19 44.8089 33.098 45.0981C33.0843 45.141 33.0675 45.1829 33.0507 45.2249L33.0507 45.225C33.0369 45.2595 33.0231 45.294 33.011 45.3291C32.892 45.6781 32.769 46.0261 32.62 46.3641C32.619 46.3666 32.6178 46.369 32.6166 46.3714C32.6153 46.374 32.614 46.3766 32.613 46.3791C32.432 46.7871 32.231 47.1871 32.008 47.5761V47.5771C30.558 50.0901 28.281 51.9751 25.596 52.8841ZM63.441 34.5201C62.287 32.4241 60 31.5991 57.615 32.4191L56.065 32.9581L59.978 22.6831C60.408 21.5621 60.378 20.3341 59.885 19.2091C59.386 18.1001 58.49 17.2581 57.376 16.8441C56.873 16.6501 56.356 16.5541 55.846 16.5441L56.148 15.7531C56.585 14.6171 56.547 13.3841 56.05 12.2981C55.559 11.1901 54.665 10.3431 53.531 9.91214C51.497 9.14114 49.236 9.94214 48.104 11.7221C47.699 11.3621 47.225 11.0741 46.698 10.8711C44.366 9.99014 41.747 11.1651 40.866 13.4901L40.356 14.8271C39.998 14.5311 39.593 14.2961 39.159 14.1321L38.918 14.0311C37.814 13.6131 36.614 13.6491 35.538 14.1301C34.457 14.6131 33.632 15.4881 33.216 16.5911L31.174 21.9581L30.8 20.8501C30.033 18.5461 27.52 17.2971 25.178 18.0801L24.993 18.1451C24.528 18.3041 24.108 18.5331 23.738 18.8171L23.28 17.4571C22.487 15.0971 19.92 13.8161 17.542 14.6151C17.014 14.7961 16.534 15.0641 16.119 15.4061C15.673 14.6351 15.008 14.0131 14.189 13.6121C13.107 13.0821 11.884 13.0071 10.775 13.3881C9.62498 13.7611 8.69398 14.5721 8.15998 15.6561C7.61298 16.7351 7.52598 17.9671 7.91598 19.1231L8.18598 19.9261C7.68198 19.9171 7.15598 19.9961 6.65298 20.1651C5.49698 20.5601 4.57198 21.3711 4.05198 22.4421C3.51298 23.5371 3.42998 24.7661 3.81698 25.8941L7.60598 37.1321L6.86398 36.6211C4.74298 35.3351 1.95598 36.0221 0.654981 38.1561C-0.0400187 39.3031 -0.189019 40.6871 0.241981 41.9311C0.475981 42.6461 0.890981 43.2921 1.48598 43.8371L12.25 52.9861C15.073 55.2881 18.476 56.4931 21.9 56.4931C23.466 56.4931 25.038 56.2401 26.559 55.7261C29.431 54.7531 31.922 52.8921 33.72 50.4231C34.47 50.8811 35.266 51.2821 36.113 51.6051C37.791 52.2461 39.543 52.5611 41.296 52.5611C44.531 52.5611 47.766 51.4871 50.53 49.4081L62.435 40.1301C63.006 39.6481 63.447 39.0161 63.714 38.2991C64.184 37.0421 64.083 35.6601 63.441 34.5201ZM38.5892 55.3641C39.3802 55.1111 40.2232 55.5441 40.4782 56.3311L42.3202 62.0351C42.5742 62.8231 42.1412 63.6691 41.3532 63.9241C41.2002 63.9731 41.0442 63.9961 40.8922 63.9961C40.2582 63.9961 39.6692 63.5921 39.4642 62.9571L37.6232 57.2531C37.3692 56.4651 37.8012 55.6191 38.5892 55.3641ZM31.1147 57.0169C31.4037 56.2389 32.2697 55.8459 33.0437 56.1329C33.8197 56.4219 34.2157 57.2849 33.9277 58.0619L32.0837 63.0229C31.8587 63.6269 31.2857 63.9999 30.6777 63.9999C30.5037 63.9999 30.3267 63.9699 30.1547 63.9059C29.3787 63.6169 28.9827 62.7539 29.2717 61.9779L31.1147 57.0169ZM13.8054 8.75884L18.2674 11.6068C18.5174 11.7658 18.7964 11.8418 19.0734 11.8418C19.5674 11.8418 20.0524 11.5968 20.3384 11.1488C20.7844 10.4498 20.5784 9.52384 19.8804 9.07684L15.4184 6.22984C14.7224 5.78584 13.7934 5.98884 13.3474 6.68784C12.9024 7.38584 13.1074 8.31284 13.8054 8.75884ZM46.2008 54.1042L50.6628 56.9512C51.3608 57.3962 51.5658 58.3242 51.1208 59.0222C50.8348 59.4712 50.3508 59.7162 49.8548 59.7162C49.5788 59.7162 49.2998 59.6392 49.0498 59.4802L44.5878 56.6342C43.8898 56.1882 43.6838 55.2612 44.1298 54.5622C44.5758 53.8642 45.5038 53.6592 46.2008 54.1042Z" fill="black"/>
</svg>

<svg xmlns="http://www.w3.org/2000/svg" width="65" height="64" fill="none" viewBox="0 0 65 64"><path fill="currentColor" fill-rule="evenodd" d="M30.935 7.867a1.5 1.5 0 0 0 1.929-.884l1.844-4.96A1.5 1.5 0 1 0 31.896.976l-1.845 4.961c-.288.777.108 1.64.884 1.93m-7.677-.202a1.5 1.5 0 0 0 2.855-.922L24.272 1.04a1.503 1.503 0 0 0-1.89-.967 1.5 1.5 0 0 0-.966 1.89zM60.903 37.25v.002l-.001.001a1.4 1.4 0 0 1-.356.55l-11.84 9.224c-3.41 2.566-7.719 3.231-11.523 1.777a11.6 11.6 0 0 1-1.941-.954l.029-.072.029-.072q.082-.186.156-.377l.075-.19c.122-.303.242-.605.345-.914q.091-.279.169-.562l.017-.06a15 15 0 0 0 .369-1.56q.085-.46.142-.922a15 15 0 0 0 .118-1.603l.003-.11q.008-.274.006-.55a16 16 0 0 0-.051-.977l-.013-.187q-.013-.219-.037-.439c-.04-.359-.101-.715-.166-1.07l-.032-.195q-.024-.166-.058-.333a17 17 0 0 0-.414-1.58l-3.248-9.643 3.34-8.78a1.4 1.4 0 0 1 .74-.784c.35-.155.74-.166 1.045-.052l.242.101a1.416 1.416 0 0 1 .818 1.817v.002l-.001.001-2.817 7.397a1.498 1.498 0 0 0 1.401 2.034c.604 0 1.174-.367 1.401-.966l2.812-7.38.002-.005.003-.005.002-.004 2.001-5.253a1.524 1.524 0 0 1 1.96-.88c.386.147.685.427.843.79a1.6 1.6 0 0 1 .042 1.173v.002l-.003.004-3.926 10.31a1.5 1.5 0 1 0 2.802 1.067l3.907-10.254.014-.028q.007-.012.012-.025l1.176-3.112a1.53 1.53 0 0 1 1.969-.886c.378.143.676.426.847.811.167.365.179.773.033 1.152l-1.82 4.77-.01.035-.008.03-3.435 9.018a1.5 1.5 0 1 0 2.803 1.07l3.458-9.08.004-.014.004-.015a1.53 1.53 0 0 1 1.973-.844c.476.177.716.527.828.776.167.383.18.802.033 1.184l-4.818 12.654-2.241.82c-1.518-.636-5.259-1.589-9.395 1.9a1.502 1.502 0 0 0 1.936 2.292c3.561-3.008 6.48-1.355 6.588-1.292a1.5 1.5 0 0 0 1.305.135l3.481-1.272.013-.006.013-.007 4.537-1.58c.575-.198 1.624-.366 2.225.725.213.38.244.842.084 1.27M25.596 52.884c-3.86 1.307-8.14.475-11.426-2.202L3.472 41.59a1.4 1.4 0 0 1-.386-.615 1.49 1.49 0 0 1 .132-1.26c.299-.49.83-.758 1.338-.758.241 0 .476.06.68.182l4.38 3.02a1.5 1.5 0 0 0 2.273-1.714L6.657 24.928a1.52 1.52 0 0 1 .091-1.168c.171-.354.481-.62.867-.753.391-.13.807-.102 1.173.081.357.178.624.482.753.86l.005.015.003.006.002.005.005.011 3.096 9.182a1.5 1.5 0 0 0 2.842-.959l-3.105-9.206-.001-.002-.002-.003-.003-.009-.001-.005-1.623-4.818a1.5 1.5 0 0 1 .084-1.168 1.5 1.5 0 0 1 .883-.764 1.48 1.48 0 0 1 1.145.074c.369.18.645.494.775.874l1.06 3.16.003.006.002.005 3.523 10.45a1.5 1.5 0 0 0 2.842-.959L17.551 19.39v-.001h-.001a1.55 1.55 0 0 1 .087-1.169c.175-.36.487-.633.868-.764a1.526 1.526 0 0 1 1.931.957l1.79 5.32q.003.012.01.022l.004.009.003.005 2.516 7.466a1.503 1.503 0 0 0 1.902.943 1.5 1.5 0 0 0 .942-1.902l-2.528-7.5-.004-.009-.004-.007-.002-.005a1.415 1.415 0 0 1 .912-1.777l.174-.06a1.42 1.42 0 0 1 1.805.885l1.709 5.073v.006l.001.001 3.412 10.126c.425 1.337.635 2.714.637 4.08q-.001.097-.01.193l-.008.154-.001.038c-.009.326-.017.652-.05.974l-.01.074q-.008.035-.011.07c-.045.401-.103.802-.184 1.196q-.024.112-.057.221-.023.076-.042.154l-.014.058c-.069.294-.138.588-.23.877q-.021.064-.047.127-.022.052-.04.104a13 13 0 0 1-.394 1.042l-.004.008q-.271.613-.605 1.197v.001c-1.45 2.513-3.727 4.398-6.412 5.307M63.441 34.52c-1.154-2.096-3.441-2.92-5.826-2.1l-1.55.538 3.913-10.275c.43-1.12.4-2.349-.093-3.474a4.45 4.45 0 0 0-2.509-2.365 4.5 4.5 0 0 0-1.53-.3l.302-.79a4.43 4.43 0 0 0-.098-3.456 4.47 4.47 0 0 0-2.519-2.386 4.54 4.54 0 0 0-5.427 1.81 4.6 4.6 0 0 0-1.406-.85c-2.332-.882-4.951.293-5.832 2.618l-.51 1.337a4.2 4.2 0 0 0-1.197-.695l-.241-.1a4.4 4.4 0 0 0-3.38.098 4.37 4.37 0 0 0-2.322 2.461l-2.042 5.367-.374-1.108c-.767-2.304-3.28-3.553-5.622-2.77l-.185.065a4.4 4.4 0 0 0-1.255.672l-.458-1.36a4.53 4.53 0 0 0-7.161-2.05 4.5 4.5 0 0 0-1.93-1.795 4.46 4.46 0 0 0-3.414-.224 4.42 4.42 0 0 0-2.615 2.268 4.46 4.46 0 0 0-.244 3.467l.27.803a4.6 4.6 0 0 0-1.533.24 4.47 4.47 0 0 0-2.601 2.276 4.48 4.48 0 0 0-.235 3.452l3.789 11.238-.742-.51c-2.121-1.287-4.908-.6-6.209 1.534a4.47 4.47 0 0 0-.413 3.775 4.44 4.44 0 0 0 1.244 1.906l10.764 9.15c2.823 2.301 6.226 3.506 9.65 3.506a14.5 14.5 0 0 0 4.659-.767c2.872-.973 5.363-2.834 7.161-5.303a14.43 14.43 0 0 0 7.576 2.138c3.235 0 6.47-1.074 9.234-3.153l11.905-9.278a4.4 4.4 0 0 0 1.279-1.83 4.5 4.5 0 0 0-.273-3.78M38.589 55.364a1.5 1.5 0 0 1 1.89.967l1.841 5.704a1.502 1.502 0 0 1-1.428 1.961 1.5 1.5 0 0 1-1.428-1.039l-1.84-5.704a1.5 1.5 0 0 1 .965-1.889m-7.474 1.653a1.502 1.502 0 0 1 2.813 1.045l-1.844 4.96a1.5 1.5 0 0 1-1.93.884 1.5 1.5 0 0 1-.882-1.928zM13.805 8.759l4.462 2.848a1.5 1.5 0 1 0 1.613-2.53L15.418 6.23a1.5 1.5 0 0 0-1.613 2.529m32.396 45.345 4.462 2.847a1.5 1.5 0 0 1-1.613 2.53l-4.462-2.847a1.5 1.5 0 0 1 1.613-2.53" clip-rule="evenodd"/></svg>
